frontend/public/images/bg-tiling-2.svg

<?xml version="1.0" encoding="UTF-8" standalone="no"?>
<svg
   xmlns:dc="http://purl.org/dc/elements/1.1/"
   xmlns:cc="http://creativecommons.org/ns#"
   xmlns:rdf="http://www.w3.org/1999/02/22-rdf-syntax-ns#"
   xmlns:svg="http://www.w3.org/2000/svg"
   xmlns="http://www.w3.org/2000/svg"
   xmlns:sodipodi="http://sodipodi.sourceforge.net/DTD/sodipodi-0.dtd"
   xmlns:inkscape="http://www.inkscape.org/namespaces/inkscape"
   width="1249.4"
   height="1187.4"
   viewBox="0 0 1249.4 1187.4"
   version="1.1"
   id="svg8"
   sodipodi:docname="bg-tiling-2.svg"
   inkscape:version="0.92.4 (5da689c313, 2019-01-14)">
  <metadata
     id="metadata14">
    <rdf:RDF>
      <cc:Work
         rdf:about="">
        <dc:format>image/svg+xml</dc:format>
        <dc:type
           rdf:resource="http://purl.org/dc/dcmitype/StillImage" />
        <dc:title></dc:title>
      </cc:Work>
    </rdf:RDF>
  </metadata>
  <defs
     id="defs12" />
  <sodipodi:namedview
     pagecolor="#ffffff"
     bordercolor="#666666"
     borderopacity="1"
     objecttolerance="10"
     gridtolerance="10"
     guidetolerance="10"
     inkscape:pageopacity="0"
     inkscape:pageshadow="2"
     inkscape:window-width="1920"
     inkscape:window-height="1009"
     id="namedview10"
     showgrid="false"
     inkscape:pagecheckerboard="true"
     inkscape:zoom="0.7375"
     inkscape:cx="613.64604"
     inkscape:cy="530.36666"
     inkscape:window-x="-8"
     inkscape:window-y="-8"
     inkscape:window-maximized="1"
     inkscape:current-layer="g6"
     fit-margin-top="0"
     fit-margin-left="0"
     fit-margin-right="0"
     fit-margin-bottom="0" />
  <g
     fill="transparent"
     id="g6"
     style="stroke:#000000;stroke-width:1;stroke-linecap:round;stroke-linejoin:round"
     transform="translate(-14.800014,-45.8)">
    <path
       d="m 726,577 33,-102 -87,63 -32,102 z m 0,125 -86,-62 32,101 87,63 z m -226,-164 -86,-63 33,102 86,63 z m 0,0 33,-101 33,101 -33,102 z m 0,203 33,-101 33,101 -33,101 z m 0,0 33,-101 -86,62 -33,102 z M 619,374 h 107 l -86,63 H 533 Z m 0,0 H 726 L 640,311 H 533 Z m -172,0 -87,-63 -33,-101 87,62 z m 0,0 H 340 l -86,-63 h 106 z m 279,0 33,-102 86,-62 -33,101 z m 0,0 h 106 l 87,-63 H 812 Z m 279,0 -86,-63 33,102 86,62 z m 0,0 33,-102 33,102 -33,101 z M 845,210 759,147 726,46 812,108 Z M 812,108 H 919 L 832,46 H 726 Z m -279,0 H 639 L 726,46 H 619 Z m 0,203 33,-101 -33,-102 -33,102 z M 414,147 447,46 360,108 327,210 Z M 134,475 167,374 134,272 101,374 Z m 87,-62 33,-102 -87,63 -33,101 z M 101,577 134,475 48,538 15,640 Z m 87,63 33,-102 33,102 -33,101 z m -87,62 -86,-62 33,101 86,63 z m 33,102 -33,101 33,102 33,-102 z m 87,62 -87,-62 33,101 87,63 z m 193,266 -87,-63 33,102 87,62 z m 33,-227 -33,102 -87,62 33,-101 z m 0,0 H 340 l -86,63 H 360 Z M 414,804 H 307 l -86,-63 h 106 z m 119,164 -33,101 33,102 33,-102 z m 86,-63 h 107 l -86,63 H 533 Z m 0,0 H 726 L 640,842 H 533 Z m 107,0 86,63 33,101 -86,-62 z m 0,0 h 106 l 87,63 H 812 Z m 312,-101 33,-102 86,-63 -33,102 z m 0,0 h 107 l 86,-63 h -107 z m -33,101 33,-101 33,101 -33,102 z m 0,0 33,-101 -86,62 -33,102 z m 33,-430 86,63 33,101 -86,-62 z m 0,0 h 107 l 86,63 H 1124 Z M 919,640 952,538 985,640 952,741 Z M 845,538 H 952 L 865,475 H 759 Z m 0,203 h 107 l -87,63 H 759 Z m 0,328 -33,102 -86,62 33,-101 z m -33,102 h 107 l -87,62 H 726 Z m -279,0 h 107 l 86,62 H 619 Z M 414,475 H 307 l -86,63 h 106 z"
       id="path2"
       style="fill:none;stroke:#ffffff;stroke-width:0.4;stroke-miterlimit:4;stroke-dasharray:none;stroke-opacity:1"
       inkscape:connector-curvature="0" />
    <path
       d="m 533,640 -86,-63 -87,63 87,62 z m 0,0 h 107 l 32,101 H 566 Z m 0,0 H 640 L 672,538 H 566 Z M 500,538 533,437 447,374 414,475 Z m 0,203 -86,63 33,101 86,-63 z m 33,-304 h 107 l 32,101 H 566 Z m 86,-63 -86,-63 -86,63 86,63 z m 107,0 -86,63 32,101 87,-63 z m 0,0 33,-102 -87,-62 -32,101 z m 0,0 h 106 l 33,101 H 759 Z m 86,-63 H 919 L 952,210 H 845 Z m -53,-39 -87,-62 87,-63 86,63 z m 73,102 87,-63 33,102 -87,62 z m 173,0 33,-102 -86,-62 -33,101 z m 33,-102 h 107 l 33,102 H 1071 Z M 845,210 H 952 L 919,108 H 812 Z m -173,0 87,-63 -33,-101 -87,62 z m -106,0 H 672 L 639,108 H 533 Z m -33,101 -86,63 -33,-102 86,-62 z m 0,0 H 640 L 672,210 H 566 Z m -33,-101 -86,-63 -87,63 87,62 z m 0,0 33,-102 -86,-62 -33,101 z M 360,311 H 254 L 221,210 h 106 z m -106,0 -87,63 -33,-102 87,-62 z m -66,329 -87,62 33,102 87,-63 z m 0,0 -87,-63 -86,63 86,62 z m 0,0 33,-102 -87,-63 -33,102 z m 66,328 -33,101 -87,-62 33,-102 z m 106,0 H 254 l -33,101 h 106 z m 54,-164 33,-102 -87,-62 -33,101 z m 0,0 H 307 l 33,101 h 107 z m 119,38 H 640 L 672,741 H 566 Z m 0,126 -33,101 -86,-62 33,-102 z m 0,0 h 107 l 32,101 H 566 Z m -226,-164 -86,62 33,102 86,-63 z m 0,0 -86,-63 -87,63 87,62 z m 259,265 h 106 l -32,102 H 533 Z m 53,-164 -86,-63 -86,63 86,63 z m -119,164 -86,63 33,101 86,-62 z m 0,0 -86,-62 -87,62 87,63 z m 172,0 -32,102 86,62 33,-101 z m 54,-164 -86,63 32,101 87,-62 z m 0,0 33,-101 -87,-63 -32,101 z m 0,0 H 832 L 865,804 H 759 Z m 33,102 86,62 -86,63 -87,-63 z m 53,-39 h 107 l 33,101 H 845 Z m 20,-63 33,-101 87,62 -33,102 z m 120,-164 86,63 -86,62 -87,-62 z m 0,0 33,-101 86,62 -33,102 z m 86,63 h 107 l 33,101 h -107 z m 86,-63 h 107 l 33,-102 h -107 z m -119,164 -86,63 33,101 86,-62 z m 119,-367 h 107 l 33,101 h -107 z m -86,-63 h 107 l 33,-101 h -107 z m -53,165 86,62 86,-63 -86,-62 z m -33,-102 86,-63 33,102 -86,63 z m 0,0 -87,-63 87,-62 86,62 z m -140,102 -86,62 33,102 86,-63 z m 0,0 -86,-63 -86,63 86,62 z m 0,0 33,-102 -86,-63 -33,102 z m 0,0 h 107 l 33,101 H 845 Z m 0,0 H 919 L 952,538 H 845 Z m 226,367 h 107 l 33,-102 h -107 z m -193,62 h 107 l -33,102 H 812 Z M 327,741 H 221 l 33,-101 h 106 z m 0,-203 H 221 l 33,102 h 106 z m 87,-63 -87,63 33,102 87,-63 z m 0,0 H 307 l 33,-101 h 107 z m -107,0 -86,-62 -87,62 87,63 z m 0,0 33,-101 -86,-63 -33,102 z"
       id="path4"
       style="fill:none;stroke:#ffffff;stroke-width:0.4;stroke-miterlimit:4;stroke-dasharray:none;stroke-opacity:1"
       inkscape:connector-curvature="0" />
  </g>
</svg>

<?xml version="1.0" encoding="UTF-8" standalone="no"?>
<svg
   xmlns:dc="http://purl.org/dc/elements/1.1/"
   xmlns:cc="http://creativecommons.org/ns#"
   xmlns:rdf="http://www.w3.org/1999/02/22-rdf-syntax-ns#"
   xmlns:svg="http://www.w3.org/2000/svg"
   xmlns="http://www.w3.org/2000/svg"
   xmlns:sodipodi="http://sodipodi.sourceforge.net/DTD/sodipodi-0.dtd"
   xmlns:inkscape="http://www.inkscape.org/namespaces/inkscape"
   width="1280"
   height="1280"
   viewBox="0 0 1280 1280"
   version="1.1"
   id="svg8"
   sodipodi:docname="bg-tiling-2.svg"
   inkscape:version="0.92.4 (5da689c313, 2019-01-14)">
  <metadata
     id="metadata14">
    <rdf:RDF>
      <cc:Work
         rdf:about="">
        <dc:format>image/svg+xml</dc:format>
        <dc:type
           rdf:resource="http://purl.org/dc/dcmitype/StillImage" />
        <dc:title></dc:title>
      </cc:Work>
    </rdf:RDF>
  </metadata>
  <defs
     id="defs12" />
  <sodipodi:namedview
     pagecolor="#ffffff"
     bordercolor="#666666"
     borderopacity="1"
     objecttolerance="10"
     gridtolerance="10"
     guidetolerance="10"
     inkscape:pageopacity="0"
     inkscape:pageshadow="2"
     inkscape:window-width="1920"
     inkscape:window-height="1009"
     id="namedview10"
     showgrid="false"
     inkscape:pagecheckerboard="true"
     inkscape:zoom="2.95"
     inkscape:cx="652.24502"
     inkscape:cy="558.86686"
     inkscape:window-x="-8"
     inkscape:window-y="-8"
     inkscape:window-maximized="1"
     inkscape:current-layer="g6" />
  <g
     fill="transparent"
     id="g6"
     stroke-linejoin="round"
     stroke-linecap="round"
     stroke-width="1"
     stroke="rgb(0, 0, 0)">
    <path
       d="M726,577 L759,475 L672,538 L640,640 Z M726,702 L640,640 L672,741 L759,804 Z M500,538 L414,475 L447,577 L533,640 Z M500,538 L533,437 L566,538 L533,640 Z M500,741 L533,640 L566,741 L533,842 Z M500,741 L533,640 L447,702 L414,804 Z M619,374 L726,374 L640,437 L533,437 Z M619,374 L726,374 L640,311 L533,311 Z M447,374 L360,311 L327,210 L414,272 Z M447,374 L340,374 L254,311 L360,311 Z M726,374 L759,272 L845,210 L812,311 Z M726,374 L832,374 L919,311 L812,311 Z M1005,374 L919,311 L952,413 L1038,475 Z M1005,374 L1038,272 L1071,374 L1038,475 Z M845,210 L759,147 L726,46 L812,108 Z M812,108 L919,108 L832,46 L726,46 Z M533,108 L639,108 L726,46 L619,46 Z M533,311 L566,210 L533,108 L500,210 Z M414,147 L447,46 L360,108 L327,210 Z M134,475 L167,374 L134,272 L101,374 Z M221,413 L254,311 L167,374 L134,475 Z M101,577 L134,475 L48,538 L15,640 Z M188,640 L221,538 L254,640 L221,741 Z M101,702 L15,640 L48,741 L134,804 Z M134,804 L101,905 L134,1007 L167,905 Z M221,866 L134,804 L167,905 L254,968 Z M414,1132 L327,1069 L360,1171 L447,1233 Z M447,905 L414,1007 L327,1069 L360,968 Z M447,905 L340,905 L254,968 L360,968 Z M414,804 L307,804 L221,741 L327,741 Z M533,968 L500,1069 L533,1171 L566,1069 Z M619,905 L726,905 L640,968 L533,968 Z M619,905 L726,905 L640,842 L533,842 Z M726,905 L812,968 L845,1069 L759,1007 Z M726,905 L832,905 L919,968 L812,968 Z M1038,804 L1071,702 L1157,639 L1124,741 Z M1038,804 L1145,804 L1231,741 L1124,741 Z M1005,905 L1038,804 L1071,905 L1038,1007 Z M1005,905 L1038,804 L952,866 L919,968 Z M1038,475 L1124,538 L1157,639 L1071,577 Z M1038,475 L1145,475 L1231,538 L1124,538 Z M919,640 L952,538 L985,640 L952,741 Z M845,538 L952,538 L865,475 L759,475 Z M845,741 L952,741 L865,804 L759,804 Z M845,1069 L812,1171 L726,1233 L759,1132 Z M812,1171 L919,1171 L832,1233 L726,1233 Z M533,1171 L640,1171 L726,1233 L619,1233 Z M414,475 L307,475 L221,538 L327,538 Z "
       fill="transparent"
       id="path2"
       style="fill:none;stroke:#ffffff;stroke-opacity:1;stroke-width:0.4;stroke-miterlimit:4;stroke-dasharray:none" />
    <path
       d="M533,640 L447,577 L360,640 L447,702 Z M533,640 L640,640 L672,741 L566,741 Z M533,640 L640,640 L672,538 L566,538 Z M500,538 L533,437 L447,374 L414,475 Z M500,741 L414,804 L447,905 L533,842 Z M533,437 L640,437 L672,538 L566,538 Z M619,374 L533,311 L447,374 L533,437 Z M726,374 L640,437 L672,538 L759,475 Z M726,374 L759,272 L672,210 L640,311 Z M726,374 L832,374 L865,475 L759,475 Z M812,311 L919,311 L952,210 L845,210 Z M759,272 L672,210 L759,147 L845,210 Z M832,374 L919,311 L952,413 L865,475 Z M1005,374 L1038,272 L952,210 L919,311 Z M1038,272 L1145,272 L1178,374 L1071,374 Z M845,210 L952,210 L919,108 L812,108 Z M672,210 L759,147 L726,46 L639,108 Z M566,210 L672,210 L639,108 L533,108 Z M533,311 L447,374 L414,272 L500,210 Z M533,311 L640,311 L672,210 L566,210 Z M500,210 L414,147 L327,210 L414,272 Z M500,210 L533,108 L447,46 L414,147 Z M360,311 L254,311 L221,210 L327,210 Z M254,311 L167,374 L134,272 L221,210 Z M188,640 L101,702 L134,804 L221,741 Z M188,640 L101,577 L15,640 L101,702 Z M188,640 L221,538 L134,475 L101,577 Z M254,968 L221,1069 L134,1007 L167,905 Z M360,968 L254,968 L221,1069 L327,1069 Z M414,804 L447,702 L360,640 L327,741 Z M414,804 L307,804 L340,905 L447,905 Z M533,842 L640,842 L672,741 L566,741 Z M533,968 L500,1069 L414,1007 L447,905 Z M533,968 L640,968 L672,1069 L566,1069 Z M307,804 L221,866 L254,968 L340,905 Z M307,804 L221,741 L134,804 L221,866 Z M566,1069 L672,1069 L640,1171 L533,1171 Z M619,905 L533,842 L447,905 L533,968 Z M500,1069 L414,1132 L447,1233 L533,1171 Z M500,1069 L414,1007 L327,1069 L414,1132 Z M672,1069 L640,1171 L726,1233 L759,1132 Z M726,905 L640,968 L672,1069 L759,1007 Z M726,905 L759,804 L672,741 L640,842 Z M726,905 L832,905 L865,804 L759,804 Z M759,1007 L845,1069 L759,1132 L672,1069 Z M812,968 L919,968 L952,1069 L845,1069 Z M832,905 L865,804 L952,866 L919,968 Z M952,741 L1038,804 L952,866 L865,804 Z M952,741 L985,640 L1071,702 L1038,804 Z M1038,804 L1145,804 L1178,905 L1071,905 Z M1124,741 L1231,741 L1264,639 L1157,639 Z M1005,905 L919,968 L952,1069 L1038,1007 Z M1124,538 L1231,538 L1264,639 L1157,639 Z M1038,475 L1145,475 L1178,374 L1071,374 Z M985,640 L1071,702 L1157,639 L1071,577 Z M952,538 L1038,475 L1071,577 L985,640 Z M952,538 L865,475 L952,413 L1038,475 Z M812,640 L726,702 L759,804 L845,741 Z M812,640 L726,577 L640,640 L726,702 Z M812,640 L845,538 L759,475 L726,577 Z M812,640 L919,640 L952,741 L845,741 Z M812,640 L919,640 L952,538 L845,538 Z M1038,1007 L1145,1007 L1178,905 L1071,905 Z M845,1069 L952,1069 L919,1171 L812,1171 Z M327,741 L221,741 L254,640 L360,640 Z M327,538 L221,538 L254,640 L360,640 Z M414,475 L327,538 L360,640 L447,577 Z M414,475 L307,475 L340,374 L447,374 Z M307,475 L221,413 L134,475 L221,538 Z M307,475 L340,374 L254,311 L221,413 Z "
       fill="transparent"
       id="path4"
       style="fill:none;stroke:#ffffff;stroke-opacity:1;stroke-width:0.4;stroke-miterlimit:4;stroke-dasharray:none" />
  </g>
</svg>
